actions/22x22-light/bookmarks.svg

<svg xmlns="http://www.w3.org/2000/svg" viewBox="0 0 22 22">
 <defs id="defs3051">
   <style type="text/css" id="current-color-scheme">
     .ColorScheme-Text {
       color:#4d4d4d;
     }
     </style>
 </defs>
   <path
      style="fill:currentColor;fill-opacity:1;stroke:none"
      d="m19 9.20029c0-.24873-.17939-.40328-.53864-.4638l-4.82672-.73591-2.16344-4.58727c-.12168-.27558-.27888-.41331-.47114-.41331-.19225 0-.34934.13773-.47114.41331l-2.16356 4.58727-4.82695.73591c-.3589.0605-.53841.21507-.53841.4638 0 .1412.0801.30256.24041.48397l3.50004 3.56896-.82686 5.04092c-.0129.0942-.0193.16149-.0193.20171 0 .1412.0337.26036.10091.35799.0672.0975.16818.14616.30284.14616.11543 0 .2436-.0401.38463-.12091l4.31722-2.3795 4.31756 2.3795c.13478.0807.26296.12091.38451.12091.12853 0 .22613-.0485.29341-.14616.0671-.0975.10079-.2168.10079-.35799 0-.0874-.003-.15455-.01-.20171l-.82697-5.04092 3.49035-3.56896c.16688-.17472.25008-.3361.25008-.48397z"
      class="ColorScheme-Text" />
</svg>

<svg xmlns="http://www.w3.org/2000/svg" viewBox="0 0 22 22">
  <defs id="defs3051">
    <style type="text/css" id="current-color-scheme">
      .ColorScheme-Text {
        color:#4d4d4d
      }
      </style>
  </defs>
    <path
       style="fill:currentColor;fill-opacity:1;stroke:none"
       class="ColorScheme-Text"
       d="M 19,9.20029 C 19,8.95156 18.82061,8.79701 18.46136,8.73649 L 13.63464,8.00058 11.4712,3.41331 C 11.34952,3.13773 11.19232,3 11.00006,3 10.80781,3 10.65072,3.13773 10.52892,3.41331 L 8.36536,8.00058 3.53841,8.73649 C 3.17951,8.79699 3,8.95156 3,9.20029 3,9.34149 3.0801,9.50285 3.24041,9.68426 l 3.50004,3.56896 -0.82686,5.04092 c -0.0129,0.0942 -0.0193,0.16149 -0.0193,0.20171 0,0.1412 0.0337,0.26036 0.10091,0.35799 C 6.0624,18.95134 6.16338,19 6.29804,19 c 0.11543,0 0.2436,-0.0401 0.38463,-0.12091 l 4.31722,-2.3795 4.31756,2.3795 C 15.45223,18.95979 15.58041,19 15.70196,19 c 0.12853,0 0.22613,-0.0485 0.29341,-0.14616 0.0671,-0.0975 0.10079,-0.2168 0.10079,-0.35799 0,-0.0874 -0.003,-0.15455 -0.01,-0.20171 l -0.82697,-5.04092 3.49035,-3.56896 c 0.16688,-0.17472 0.25008,-0.3361 0.25008,-0.48397 l 0,0 z"
        />
</svg>
